X: 96
T: No_33_Four_Fires_on_the_Ground.krn
N: Derived from No_33_Four_Fires_on_the_Ground.krn
%%abc-version 2.0
%%abcx-abcm2ps-target-version 5.9.1 (29 Sep 2008)
%%abc-creator hum2abc beta
%%abcx-conversion-date 2019/03/15 08:37:56
%%humdrum-veritas 1055926855
%%humdrum-veritas-data 3327858398
%%linebreak <none>
%%barnumbers 0
L: 1/16
M: 2/4
K: C clef=bass
[K:clef=bass][M:2/4]G,2A,2 D2DB, | 
(B,2G,)G, A,3G, | 
A,G,A,2 A,3A, | 
A,3G,G,4 ]|:  
A,2A,2 B,2B,A, | 
A,3G, B,2B,A, | 
A,3A, A,3A, | 
A,8 :|]  



